!! 00000] TT[WS
!!!OTL: Zhangsheng xi yuanyang
!!!ARE: Asia, China, Shanxi Jingle
!! Ethnic Group: Han
!! WII, 196 (1)
!!!SCT: J0695
!!!YEM: Copyright 1995, estate of Helmut Schaffrath.
**kern
*ICvox
*Ivox
*M2/4
*k[b-e-a-]
*E-:
{8g
16g
16b-
8cc
8ee-
=1
8b-
16cc
16b-
8g
8f
=2
8g
16g
16b-
8cc
8ee-
=3
8b-
16cc
16b-
8g
8f}
=4
{8g
4b-
8ee-
=5
8cc
8b-
8g
8f
=6
8b-
8f
8g
16b-
16cc
=7
8.e-
16f
4e-}
=8
{8g
8e-
4f
=9
8b-
8b-
8ee-
8g
=10
8f
8g
8f
8e-
=11
16f
16e-
4c
8e-
=12
8f
16g
16b-
8e-
8c
=13
2B-}
==
!!!AGN: Xiaodiao, Shidiao. XÅshi
!!!ONB: ESAC (Essen Associative Code) Database: CHINA
!!!AMT: simple duple
!!!AIN: vox
!!!EED: Helmut Schaffrath
!!!EEV: 1.0
*-
